X:1549
T:Pollonesse 1832-61
O:Södermanland
R:Slängpolska
B:Notbok 1832 från Sörmlands museum
N:[[http://www.sormlandsmusikarkiv.se/noter/1832/1832.html]]
Z:Till abc Jonas Brunskog
M: 3/4
L: 1/16
K: D
|:a4>d'4 a2fa | a2>g2 e2a2 fdec | d2ef g2ef d2ec | d2f4< a4a2 |
a4>d'4 a2fa | a2>g2 e2a2 fdec | d2ef g2ef d2ec | D4 D8 :|
|:A2c2 e2a2 fdec | d2ef g2>g2 e2gf | d2ef g2ef d2ec | d2>c2 A8 |
A2c2 e2a2 fdec | d2ef g2>g2 e2gf | d2ef g2ef d2ec |[1 e4 d8 :|[2 e4 d4 z4|] 
(:musicend:)
(:music:)
